src/svgs/paint-roller.svg

<svg xmlns="http://www.w3.org/2000/svg" viewBox="0 0 24 24" width="512" height="512" aria-labelledby="iipaint-roller-desc iipaint-roller-title"><title id="iipaint-roller-title">Paint Roller Icon</title><desc id="iipaint-roller-desc">A picture depicting a paint roller.</desc><path d="M21 4h-2V3a1 1 0 00-1-1H4a1 1 0 00-1 1v1a1 1 0 000 2v1a1 1 0 001 1h14a1 1 0 001-1V6h2v4h-9a1 1 0 00-1 1v2a1 1 0 00-1 1v6a2 2 0 004 0v-6a1 1 0 00-1-1v-2h8a1 1 0 001-1V5a1 1 0 00-1-1z"/></svg>

<svg xmlns="http://www.w3.org/2000/svg" viewBox="0 0 24 24"><path d="M21,4H19V3a1,1,0,0,0-1-1H4A1,1,0,0,0,3,3V4A1,1,0,0,0,3,6V7A1,1,0,0,0,4,8H18a1,1,0,0,0,1-1V6h2v4H12a1,1,0,0,0-1,1v2a1,1,0,0,0-1,1v6a2,2,0,0,0,4,0V14a1,1,0,0,0-1-1V11h8a1,1,0,0,0,1-1V5A1,1,0,0,0,21,4Z"/></svg>
